high-definition-box.svg

<svg  viewBox="0 0 24 24" fill="currentColor"><path  d="M19,3H5C3.89,3 3,3.9 3,5V19A2,2 0 0,0 5,21H19A2,2 0 0,0 21,19V5A2,2 0 0,0 19,3M11,15H9.5V13H7.5V15H6V9H7.5V11.5H9.5V9H11V15M13,9H17A1,1 0 0,1 18,10V14A1,1 0 0,1 17,15H13V9M14.5,13.5H16.5V10.5H14.5V13.5Z"/></svg>

<svg fill="currentColor" viewBox="0 0 24 24"><path d="M19 3H5a2 2 0 0 0-2 2v14a2 2 0 0 0 2 2h14a2 2 0 0 0 2-2V5a2 2 0 0 0-2-2m-8 12H9.5v-2h-2v2H6V9h1.5v2.5h2V9H11zm2-6h4a1 1 0 0 1 1 1v4a1 1 0 0 1-1 1h-4zm1.5 4.5h2v-3h-2z"/></svg>
